public/datum-dark.svg

<svg width="141" height="39" viewBox="0 0 141 39" fill="none" xmlns="http://www.w3.org/2000/svg">
<path d="M14.4208 -5.72205e-05C13.8683 -5.72205e-05 13.4178 0.44902 13.4178 1.00293C13.4178 1.55685 13.4178 10.8034 13.4178 10.8034C13.4178 11.3559 13.8669 11.7815 14.4208 11.7815L19.1801 11.8064C21.1464 11.8064 23.0193 12.5742 24.4543 13.9668C25.8979 15.3693 26.704 17.2208 26.7267 19.1829C26.7493 21.1931 25.9829 23.0858 24.5705 24.5138C23.1581 25.9418 21.2739 26.728 19.2651 26.728H19.1801C17.2181 26.7053 15.3665 25.8993 13.964 24.4557C12.5714 23.022 11.7815 21.1478 11.7815 19.1815V14.3663C11.7815 13.8138 11.3545 13.4178 10.8006 13.4178H1.00299C0.450497 13.4178 0 13.8123 0 14.3663V24.1667C0 24.7192 0.44908 25.1993 1.00299 25.1993H8.73652C9.77635 25.1993 10.4464 25.1839 10.9989 25.2589C11.7328 25.3581 12.2243 25.5678 12.5955 25.9375C12.9667 26.3073 13.1749 26.8003 13.2741 27.5341C13.3492 28.088 13.4178 28.7567 13.4178 29.7979V37.53C13.4178 38.0825 13.8124 38.6171 14.3663 38.6171H19.2665C21.4666 38.6171 23.627 38.1633 25.6882 37.4351C33.3708 34.7194 38.5331 27.4179 38.5331 19.2665C38.5331 11.115 33.3708 3.81358 25.6882 1.09785C23.627 0.36969 21.4666 -5.72205e-05 19.2665 -5.72205e-05H14.4222H14.4208Z" fill="white"/>
<path d="M126.003 16.4649H125.967L125.153 26.8726H122.922L123.736 14H127.118L131.795 23.9509L136.544 14H139.855L140.669 26.8726H138.438L137.624 16.4649H137.588L132.805 26.8726H130.804L126.003 16.4649Z" fill="white"/>
<path d="M118.966 21.3482C118.966 22.387 118.807 23.2782 118.488 24.0219C118.169 24.7537 117.715 25.3558 117.125 25.8279C116.535 26.3001 115.815 26.6483 114.965 26.8726C114.127 27.0851 113.182 27.1913 112.132 27.1913C111.081 27.1913 110.131 27.0851 109.281 26.8726C108.443 26.6483 107.729 26.3001 107.138 25.8279C106.548 25.3558 106.094 24.7537 105.775 24.0219C105.456 23.2782 105.297 22.387 105.297 21.3482V14H107.811V21.1711C107.811 21.7023 107.87 22.204 107.988 22.6762C108.106 23.1365 108.325 23.5438 108.643 23.8979C108.962 24.2521 109.399 24.5295 109.954 24.7301C110.52 24.9308 111.246 25.0311 112.132 25.0311C113.017 25.0311 113.737 24.9308 114.292 24.7301C114.858 24.5295 115.301 24.2521 115.62 23.8979C115.938 23.5438 116.157 23.1365 116.275 22.6762C116.393 22.204 116.452 21.7023 116.452 21.1711V14H118.966V21.3482Z" fill="white"/>
<path d="M93.1296 16.1602H87.375V14H101.399V16.1602H95.6439V26.8726H93.1296V16.1602Z" fill="white"/>
<path d="M77.2139 14H80.0824L86.3328 26.8726H83.6768L82.3311 23.9156H74.9121L73.5487 26.8726H70.875L77.2139 14ZM81.3395 21.7554L78.6481 16.0185L75.9568 21.7554H81.3395Z" fill="white"/>
<path d="M53.7656 14H59.9629C60.9781 14 61.9283 14.118 62.8136 14.3541C63.7108 14.5784 64.4899 14.9443 65.1509 15.4519C65.8119 15.9477 66.3313 16.6029 66.7091 17.4174C67.0986 18.22 67.2934 19.1998 67.2934 20.3566C67.2934 21.4544 67.1163 22.4106 66.7622 23.2251C66.4081 24.0396 65.9123 24.7183 65.2748 25.2613C64.6374 25.8043 63.876 26.2116 62.9907 26.4831C62.1054 26.7428 61.1315 26.8726 60.0691 26.8726H53.7656V14ZM58.8297 24.7124C59.9039 24.7124 60.8128 24.6298 61.5565 24.4645C62.312 24.2993 62.9258 24.0396 63.398 23.6854C63.8819 23.3313 64.2302 22.8828 64.4426 22.3398C64.6669 21.7968 64.7791 21.1475 64.7791 20.392C64.7791 19.6012 64.6669 18.9401 64.4426 18.4089C64.2184 17.8659 63.8642 17.4292 63.3803 17.0986C62.9081 16.7681 62.2943 16.532 61.5388 16.3904C60.7833 16.2369 59.8803 16.1602 58.8297 16.1602H56.2799V24.7124H58.8297Z" fill="white"/>
</svg>

<?xml version="1.0" encoding="UTF-8"?>
<svg id="Layer_1" xmlns="http://www.w3.org/2000/svg" version="1.1" viewBox="0 0 141 39">
  <!-- Generator: Adobe Illustrator 29.8.1, SVG Export Plug-In . SVG Version: 2.1.1 Build 2)  -->
  <defs>
    <style>
      .st0 {
        fill: #fff;
      }

      .st1 {
        fill: #e6f59f;
      }
    </style>
  </defs>
  <path class="st1" d="M14.42,0C13.87,0,13.42.45,13.42,1v9.8c0,.55.45.98,1,.98l4.76.02c1.97,0,3.84.77,5.27,2.16,1.44,1.4,2.25,3.25,2.27,5.22.02,2.01-.74,3.9-2.16,5.33-1.41,1.43-3.3,2.21-5.31,2.21h-.09c-1.96-.02-3.81-.83-5.22-2.27-1.39-1.43-2.18-3.31-2.18-5.27v-4.82c0-.55-.43-.95-.98-.95H1c-.55,0-1,.39-1,.95v9.8c0,.55.45,1.03,1,1.03h7.73c1.04,0,1.71-.02,2.26.06.73.1,1.23.31,1.6.68.37.37.58.86.68,1.6.08.55.14,1.22.14,2.26v7.73c0,.55.39,1.09.95,1.09h4.9c2.2,0,4.36-.45,6.42-1.18,7.68-2.72,12.84-10.02,12.84-18.17S33.37,3.81,25.69,1.1C23.63.37,21.47,0,19.27,0h-4.85Z"/>
  <path class="st0" d="M126,16.46h-.04l-.81,10.41h-2.23l.81-12.87h3.38l4.68,9.95,4.75-9.95h3.31l.81,12.87h-2.23l-.81-10.41h-.04l-4.78,10.41h-2l-4.8-10.41Z"/>
  <path class="st0" d="M118.97,21.35c0,1.04-.16,1.93-.48,2.67-.32.73-.77,1.33-1.36,1.81-.59.47-1.31.82-2.16,1.04-.84.21-1.78.32-2.83.32s-2-.11-2.85-.32c-.84-.22-1.55-.57-2.14-1.04-.59-.47-1.04-1.07-1.36-1.81-.32-.74-.48-1.63-.48-2.67v-7.35h2.51v7.17c0,.53.06,1.03.18,1.51.12.46.34.87.65,1.22.32.35.76.63,1.31.83.57.2,1.29.3,2.18.3s1.6-.1,2.16-.3c.57-.2,1.01-.48,1.33-.83.32-.35.54-.76.65-1.22.12-.47.18-.97.18-1.51v-7.17h2.51v7.35Z"/>
  <path class="st0" d="M93.13,16.16h-5.75v-2.16h14.02v2.16h-5.76v10.71h-2.51v-10.71Z"/>
  <path class="st0" d="M77.21,14h2.87l6.25,12.87h-2.66l-1.35-2.96h-7.42l-1.36,2.96h-2.67l6.34-12.87ZM81.34,21.76l-2.69-5.74-2.69,5.74h5.38Z"/>
  <path class="st0" d="M53.77,14h6.2c1.02,0,1.97.12,2.85.35.9.22,1.68.59,2.34,1.1.66.5,1.18,1.15,1.56,1.97.39.8.58,1.78.58,2.94s-.18,2.05-.53,2.87c-.35.81-.85,1.49-1.49,2.04-.64.54-1.4.95-2.28,1.22-.89.26-1.86.39-2.92.39h-6.3v-12.87ZM58.83,24.71c1.07,0,1.98-.08,2.73-.25.76-.17,1.37-.42,1.84-.78.48-.35.83-.8,1.04-1.35.22-.54.34-1.19.34-1.95s-.11-1.45-.34-1.98c-.22-.54-.58-.98-1.06-1.31-.47-.33-1.09-.57-1.84-.71-.76-.15-1.66-.23-2.71-.23h-2.55v8.55h2.55Z"/>
</svg>
